X:1
T:Prendre ma peine
I:last changed 14/2/2016
F:http://www.campin.me.uk/Music/Edinbal.abc
C:Philippe Plard
M:8/8
L:1/8
%Q:3/8=72
K:AMin
c>BA ABc fe|d>cd dcd Bc|c>BA ABc fe|d>cd B3- B2:|
c>de ede ge|c>BA ABc dB|c>de efg af|e>dc cBc dB:|A8|]


